packages/tokens/icons/link/size32Px.svg

<svg viewBox="0 0 32 32" fill="none" xmlns="http://www.w3.org/2000/svg" width="1em" height="1em"><path d="M9.5 14.5L6.0657 18.0284C3.92238 20.2304 3.94612 23.7459 6.119 25.9188V25.9188C8.30879 28.1086 11.8577 28.1132 14.0532 25.9291L17.5 22.5" stroke="currentColor" stroke-linecap="round" stroke-linejoin="round"/><path d="M14.2 9.99994L18.0552 6.14478C20.2314 3.96853 23.7598 3.96853 25.9361 6.14478V6.14478C28.1123 8.32104 28.1123 11.8494 25.9361 14.0257L22.0809 17.8808" stroke="currentColor" stroke-linecap="round" stroke-linejoin="round"/><path d="M21.5 10.5L10.5 21.5" stroke="currentColor" stroke-linecap="round" stroke-linejoin="round"/></svg>

<svg xmlns="http://www.w3.org/2000/svg" fill="none" viewBox="0 0 32 32" width="1em" height="1em"><path stroke="currentColor" stroke-linecap="round" stroke-linejoin="round" d="m9.5 14.5-3.434 3.528a5.618 5.618 0 0 0 .053 7.89v0a5.618 5.618 0 0 0 7.934.011L17.5 22.5M14.2 10l3.855-3.855a5.573 5.573 0 0 1 7.881 0v0a5.573 5.573 0 0 1 0 7.88l-3.855 3.856M21.5 10.5l-11 11"/></svg>
